X:165
T: WILLKOMMEN SCHOENER JUENGLING
N: F0299
O: Europa, Mitteleuropa, Deutschland
R: Jugend - Lied, Jahreszeiten, Fruehling
M: 6/8
L: 1/16
K: Bb
d2 | d4B2e4d2 | d4c2B2z2
f2 | f4B2A4B2 | c6z4
c2 | c4F2d4B2 | e3fdec2z2
g2 | f4d2c4d2 | B6z4

